img/ribeirotecnologia.svg

<svg width="155" height="60" viewBox="0 0 155 60" fill="none" xmlns="http://www.w3.org/2000/svg">
<path d="M8.64 3.48739H40.7314C44.2469 3.48739 47.0027 6.1905 47.0027 9.41176V51.7647C47.0027 54.986 44.2469 57.6891 40.7314 57.6891H8.64C5.12458 57.6891 2.36874 54.986 2.36874 51.7647V9.41176C2.36874 6.1905 5.12457 3.48739 8.64 3.48739Z" stroke="white" stroke-width="2.26891"/>
<path d="M28.3886 45.8823L27.7714 49.4118L30.24 48.2353L33.3257 51.7647L37.6457 49.4118L35.1772 45.8823L37.6457 44.7059L33.3257 43.5294L29.0057 42.3529L28.3886 45.8823Z" stroke="white" stroke-width="1.13445"/>
<path d="M25.9273 27.222H19.8088V38.8235H14.3197V8.71324H25.4283C29.0732 8.71324 31.8865 9.49219 33.8682 11.0501C35.8497 12.608 36.8406 14.8621 36.8406 17.8125C36.8406 19.8254 36.327 21.5142 35.3001 22.8792C34.2876 24.2302 32.8702 25.2712 31.0476 26.0019L38.1423 38.5547V38.8235H32.2626L25.9273 27.222ZM19.8088 23.0239H25.4499C27.3013 23.0239 28.7478 22.5827 29.7893 21.7004C30.8306 20.8042 31.3514 19.5841 31.3514 18.04C31.3514 16.4269 30.8668 15.1792 29.8977 14.2968C28.943 13.4145 27.5111 12.9595 25.6018 12.932H19.8088V23.0239Z" fill="white"/>
<path d="M62.1193 38.8235H58.5515V18.9339H62.1193V38.8235ZM58.2621 13.6581C58.2621 13.1066 58.4358 12.6409 58.7829 12.2611C59.1429 11.8812 59.6701 11.6912 60.3643 11.6912C61.0587 11.6912 61.5857 11.8812 61.9457 12.2611C62.3058 12.6409 62.4857 13.1066 62.4857 13.6581C62.4857 14.2095 62.3058 14.6692 61.9457 15.0367C61.5857 15.4045 61.0587 15.5882 60.3643 15.5882C59.6701 15.5882 59.1429 15.4045 58.7829 15.0367C58.4358 14.6692 58.2621 14.2095 58.2621 13.6581ZM85.5128 29.0993C85.5128 32.1385 84.78 34.5833 83.3143 36.4339C81.8486 38.272 79.8815 39.1912 77.4129 39.1912C74.7771 39.1912 72.7393 38.3027 71.2993 36.5258L71.1257 38.8235H67.8472V10.5882H71.4151V21.1213C72.855 19.4179 74.8414 18.5661 77.3743 18.5661C79.9072 18.5661 81.8937 19.4792 83.3336 21.3052C84.7864 23.1312 85.5128 25.6312 85.5128 28.8052V29.0993ZM81.945 28.7132C81.945 26.3971 81.4757 24.6079 80.5372 23.3456C79.5986 22.0833 78.2486 21.4522 76.4872 21.4522C74.1343 21.4522 72.4436 22.4939 71.4151 24.5772V33.1801C72.5079 35.2635 74.2115 36.3052 76.5257 36.3052C78.2357 36.3052 79.5664 35.674 80.5179 34.4118C81.4693 33.1495 81.945 31.25 81.945 28.7132ZM98.685 39.1912C95.8565 39.1912 93.555 38.3088 91.7808 36.5441C90.0065 34.7672 89.1193 32.3959 89.1193 29.4301V28.8052C89.1193 26.8321 89.5114 25.0735 90.2957 23.5294C91.0929 21.9731 92.1986 20.7598 93.6129 19.8896C95.04 19.0073 96.5829 18.5661 98.2415 18.5661C100.954 18.5661 103.063 19.4179 104.567 21.1213C106.071 22.8247 106.824 25.2635 106.824 28.4375V29.8529H92.6872C92.7386 31.8138 93.3365 33.4007 94.4808 34.614C95.6379 35.8149 97.1036 36.4154 98.8779 36.4154C100.138 36.4154 101.205 36.1704 102.079 35.6801C102.954 35.19 103.719 34.5405 104.374 33.7316L106.554 35.3493C104.805 37.9106 102.182 39.1912 98.685 39.1912ZM98.2415 21.3602C96.8015 21.3602 95.5929 21.8627 94.6157 22.8676C93.6386 23.8602 93.0343 25.2574 92.8029 27.0588H103.256V26.8014C103.153 25.0735 102.664 23.7378 101.79 22.7941C100.916 21.8382 99.7329 21.3602 98.2415 21.3602ZM114.846 38.8235H111.279V18.9339H114.846V38.8235ZM110.989 13.6581C110.989 13.1066 111.163 12.6409 111.51 12.2611C111.87 11.8812 112.397 11.6912 113.091 11.6912C113.786 11.6912 114.313 11.8812 114.673 12.2611C115.033 12.6409 115.213 13.1066 115.213 13.6581C115.213 14.2095 115.033 14.6692 114.673 15.0367C114.313 15.4045 113.786 15.5882 113.091 15.5882C112.397 15.5882 111.87 15.4045 111.51 15.0367C111.163 14.6692 110.989 14.2095 110.989 13.6581ZM130.66 21.9853C130.121 21.8995 129.536 21.8566 128.906 21.8566C126.566 21.8566 124.978 22.8064 124.142 24.7059V38.8235H120.574V18.9339H124.046L124.104 21.2316C125.274 19.4547 126.933 18.5661 129.079 18.5661C129.774 18.5661 130.301 18.652 130.66 18.8235V21.9853ZM132.628 28.6948C132.628 26.7464 133.026 24.9939 133.824 23.4375C134.633 21.8812 135.752 20.6801 137.18 19.8346C138.619 18.9889 140.258 18.5661 142.097 18.5661C144.938 18.5661 147.233 19.5036 148.982 21.3787C150.743 23.2536 151.625 25.7475 151.625 28.8602V29.0993C151.625 31.0355 151.232 32.7758 150.448 34.3199C149.677 35.8518 148.565 37.0466 147.112 37.9045C145.672 38.7622 144.013 39.1912 142.135 39.1912C139.308 39.1912 137.012 38.2536 135.251 36.3787C133.502 34.5036 132.628 32.0221 132.628 28.9339V28.6948ZM136.215 29.0993C136.215 31.3052 136.749 33.076 137.815 34.4118C138.895 35.7475 140.336 36.4154 142.135 36.4154C143.949 36.4154 145.389 35.7414 146.455 34.3934C147.523 33.0331 148.056 31.1335 148.056 28.6948C148.056 26.5135 147.509 24.7488 146.417 23.4007C145.337 22.0405 143.897 21.3602 142.097 21.3602C140.336 21.3602 138.915 22.0282 137.835 23.364C136.755 24.6998 136.215 26.6115 136.215 29.0993Z" fill="white"/>
<path d="M82.555 42.8171H79.1703V51.7647H77.7889V42.8171H74.4115V41.728H82.555V42.8171ZM86.4314 51.9026C85.3706 51.9026 84.5076 51.5716 83.8422 50.9099C83.1769 50.2435 82.8442 49.3544 82.8442 48.2422V48.0078C82.8442 47.2679 82.9913 46.6085 83.2854 46.0294C83.5844 45.4458 83.999 44.9908 84.5293 44.6645C85.0645 44.3336 85.643 44.1682 86.265 44.1682C87.2823 44.1682 88.0731 44.4876 88.6372 45.1263C89.2012 45.7652 89.4833 46.6796 89.4833 47.87V48.4007H84.1821C84.2015 49.136 84.4257 49.7312 84.8547 50.1861C85.2887 50.6365 85.8383 50.8616 86.5037 50.8616C86.9762 50.8616 87.3763 50.7698 87.7042 50.5859C88.0321 50.4021 88.319 50.1586 88.5648 49.8553L89.3821 50.4619C88.7264 51.4224 87.7428 51.9026 86.4314 51.9026ZM86.265 45.216C85.725 45.216 85.2718 45.4045 84.9054 45.7813C84.539 46.1535 84.3123 46.6774 84.2256 47.3529H88.1454V47.2565C88.1068 46.6085 87.9236 46.1075 87.5958 45.7536C87.2679 45.3952 86.8244 45.216 86.265 45.216ZM94.177 50.8616C94.6543 50.8616 95.0714 50.7238 95.4282 50.4481C95.7849 50.1724 95.9827 49.8276 96.0212 49.4141H97.2868C97.2627 49.8414 97.1084 50.2481 96.8239 50.6342C96.5394 51.0202 96.1585 51.3281 95.6812 51.5579C95.2088 51.7876 94.7074 51.9026 94.177 51.9026C93.1115 51.9026 92.2629 51.5648 91.6313 50.8893C91.0045 50.2091 90.6911 49.2808 90.6911 48.1044V47.8906C90.6911 47.1645 90.8309 46.5188 91.1106 45.9535C91.3902 45.3884 91.7904 44.9494 92.3111 44.6369C92.8366 44.3245 93.4562 44.1682 94.1697 44.1682C95.0473 44.1682 95.7753 44.4187 96.3539 44.9195C96.9372 45.4205 97.2483 46.0708 97.2868 46.8704H96.0212C95.9827 46.3879 95.7897 45.9927 95.4427 45.6847C95.1003 45.3722 94.676 45.216 94.1697 45.216C93.4899 45.216 92.962 45.4504 92.5859 45.9191C92.2146 46.3833 92.029 47.0565 92.029 47.9388V48.1801C92.029 49.0395 92.2146 49.7013 92.5859 50.1654C92.9572 50.6296 93.4875 50.8616 94.177 50.8616ZM100.057 44.3061L100.1 45.2435C100.698 44.5267 101.479 44.1682 102.443 44.1682C104.097 44.1682 104.931 45.0574 104.946 46.8359V51.7647H103.608V46.8291C103.603 46.2914 103.473 45.8939 103.217 45.6365C102.966 45.3792 102.573 45.2505 102.038 45.2505C101.604 45.2505 101.224 45.3607 100.896 45.5813C100.568 45.8019 100.312 46.0914 100.129 46.4499V51.7647H98.7911V44.3061H100.057ZM106.609 47.9665C106.609 47.2358 106.758 46.5786 107.057 45.9949C107.361 45.4113 107.781 44.9609 108.316 44.6439C108.856 44.3267 109.471 44.1682 110.16 44.1682C111.226 44.1682 112.086 44.5198 112.742 45.2229C113.402 45.926 113.733 46.8612 113.733 48.0285V48.1181C113.733 48.8442 113.586 49.4968 113.292 50.0759C113.002 50.6502 112.585 51.0984 112.04 51.42C111.5 51.7418 110.878 51.9026 110.174 51.9026C109.114 51.9026 108.253 51.5511 107.593 50.8479C106.937 50.1447 106.609 49.2141 106.609 48.0561V47.9665ZM107.954 48.1181C107.954 48.9453 108.154 49.6094 108.554 50.1104C108.959 50.6112 109.499 50.8616 110.174 50.8616C110.854 50.8616 111.394 50.6089 111.794 50.1034C112.195 49.5933 112.395 48.8809 112.395 47.9665C112.395 47.1485 112.19 46.4867 111.78 45.9812C111.375 45.4711 110.835 45.216 110.16 45.216C109.499 45.216 108.967 45.4665 108.562 45.9674C108.157 46.4682 107.954 47.1852 107.954 48.1181ZM116.864 51.7647H115.526V41.1765H116.864V51.7647ZM118.658 47.9665C118.658 47.2358 118.807 46.5786 119.106 45.9949C119.41 45.4113 119.829 44.9609 120.365 44.6439C120.905 44.3267 121.519 44.1682 122.209 44.1682C123.274 44.1682 124.135 44.5198 124.791 45.2229C125.452 45.926 125.781 46.8612 125.781 48.0285V48.1181C125.781 48.8442 125.634 49.4968 125.341 50.0759C125.05 50.6502 124.635 51.0984 124.089 51.42C123.55 51.7418 122.927 51.9026 122.223 51.9026C121.163 51.9026 120.302 51.5511 119.641 50.8479C118.986 50.1447 118.658 49.2141 118.658 48.0561V47.9665ZM120.003 48.1181C120.003 48.9453 120.203 49.6094 120.603 50.1104C121.008 50.6112 121.548 50.8616 122.223 50.8616C122.903 50.8616 123.443 50.6089 123.843 50.1034C124.243 49.5933 124.443 48.8809 124.443 47.9665C124.443 47.1485 124.238 46.4867 123.829 45.9812C123.424 45.4711 122.884 45.216 122.209 45.216C121.548 45.216 121.015 45.4665 120.61 45.9674C120.206 46.4682 120.003 47.1852 120.003 48.1181ZM127.141 47.9733C127.141 46.8107 127.423 45.8869 127.987 45.2022C128.551 44.5128 129.299 44.1682 130.23 44.1682C131.184 44.1682 131.929 44.4899 132.464 45.1333L132.529 44.3061H133.751V51.5855C133.751 52.5506 133.45 53.3112 132.847 53.8672C132.249 54.4233 131.444 54.7013 130.432 54.7013C129.868 54.7013 129.316 54.5864 128.776 54.3566C128.236 54.1268 127.824 53.812 127.539 53.4122L128.234 52.6471C128.806 53.3226 129.509 53.6604 130.338 53.6604C130.989 53.6604 131.495 53.4858 131.856 53.1365C132.223 52.7872 132.406 52.2955 132.406 51.6613V51.0202C131.871 51.6085 131.14 51.9026 130.215 51.9026C129.299 51.9026 128.556 51.5511 127.987 50.8479C127.423 50.1447 127.141 49.1866 127.141 47.9733ZM128.487 48.1181C128.487 48.9591 128.667 49.6208 129.029 50.1034C129.39 50.5813 129.896 50.8204 130.548 50.8204C131.391 50.8204 132.011 50.4549 132.406 49.7242V46.3189C131.996 45.6066 131.381 45.2505 130.562 45.2505C129.911 45.2505 129.403 45.4918 129.036 45.9742C128.669 46.4568 128.487 47.1714 128.487 48.1181ZM137.23 51.7647H135.892V44.3061H137.23V51.7647ZM135.784 42.3276C135.784 42.1208 135.848 41.9462 135.979 41.8038C136.113 41.6613 136.312 41.5901 136.571 41.5901C136.832 41.5901 137.03 41.6613 137.165 41.8038C137.3 41.9462 137.367 42.1208 137.367 42.3276C137.367 42.5345 137.3 42.7068 137.165 42.8447C137.03 42.9826 136.832 43.0515 136.571 43.0515C136.312 43.0515 136.113 42.9826 135.979 42.8447C135.848 42.7068 135.784 42.5345 135.784 42.3276ZM144.209 51.7647C144.131 51.6176 144.07 51.3556 144.021 50.9788C143.399 51.5947 142.656 51.9026 141.794 51.9026C141.022 51.9026 140.388 51.6958 139.892 51.2821C139.399 50.864 139.153 50.3355 139.153 49.6967C139.153 48.92 139.462 48.318 140.079 47.8906C140.701 47.4586 141.574 47.2426 142.697 47.2426H143.999V46.6567C143.999 46.2109 143.86 45.8571 143.58 45.5952C143.301 45.3286 142.888 45.1953 142.343 45.1953C141.866 45.1953 141.465 45.3102 141.143 45.54C140.82 45.7698 140.658 46.0478 140.658 46.3741H139.313C139.313 46.0019 139.45 45.6434 139.725 45.2987C140.005 44.9494 140.38 44.6738 140.853 44.4715C141.331 44.2693 141.854 44.1682 142.423 44.1682C143.324 44.1682 144.03 44.3842 144.541 44.8162C145.053 45.2435 145.317 45.8341 145.337 46.5878V50.0207C145.337 50.7054 145.429 51.25 145.612 51.6544V51.7647H144.209ZM141.989 50.7927C142.408 50.7927 142.806 50.6893 143.182 50.4826C143.559 50.2758 143.83 50.0069 143.999 49.676V48.1456H142.95C141.311 48.1456 140.491 48.6029 140.491 49.5174C140.491 49.9173 140.632 50.2298 140.911 50.4549C141.191 50.6801 141.55 50.7927 141.989 50.7927Z" fill="white"/>
</svg>

<svg width="155" height="60" fill="none" xmlns="http://www.w3.org/2000/svg"><path d="M8.64 3.487h32.091c3.516 0 6.272 2.704 6.272 5.925v42.353c0 3.221-2.756 5.924-6.272 5.924H8.64c-3.515 0-6.271-2.703-6.271-5.924V9.412c0-3.222 2.756-5.925 6.271-5.925Z" stroke="#fff" stroke-width="2.269"/><path d="m28.389 45.882-.618 3.53 2.469-1.177 3.086 3.53 4.32-2.353-2.469-3.53 2.469-1.176-4.32-1.177-4.32-1.176-.617 3.53Z" stroke="#fff" stroke-width="1.134"/><path d="M25.927 27.222H19.81v11.602h-5.49V8.714h11.11c3.644 0 6.458.778 8.44 2.336 1.98 1.558 2.972 3.812 2.972 6.762 0 2.013-.514 3.702-1.54 5.067-1.013 1.351-2.43 2.392-4.253 3.123l7.094 12.553v.269h-5.88l-6.335-11.602Zm-6.118-4.198h5.64c1.852 0 3.299-.441 4.34-1.324 1.042-.896 1.562-2.116 1.562-3.66 0-1.613-.484-2.86-1.453-3.743-.955-.883-2.387-1.338-4.296-1.365h-5.793v10.092ZM62.12 38.824H58.55v-19.89h3.568v19.89Zm-3.858-25.166c0-.551.174-1.017.52-1.397.36-.38.888-.57 1.582-.57.695 0 1.222.19 1.582.57.36.38.54.846.54 1.397 0 .552-.18 1.011-.54 1.379-.36.367-.887.551-1.582.551-.694 0-1.221-.183-1.581-.551-.347-.368-.52-.828-.52-1.379ZM85.512 29.1c0 3.04-.732 5.484-2.198 7.335-1.465 1.838-3.432 2.757-5.901 2.757-2.636 0-4.674-.888-6.114-2.665l-.173 2.297h-3.279V10.589h3.568v10.533c1.44-1.703 3.426-2.555 5.96-2.555 2.532 0 4.519.913 5.959 2.74 1.452 1.825 2.179 4.325 2.179 7.5v.293Zm-3.567-.386c0-2.316-.47-4.105-1.408-5.367-.938-1.263-2.288-1.894-4.05-1.894-2.353 0-4.043 1.042-5.072 3.125v8.603c1.093 2.084 2.796 3.125 5.11 3.125 1.71 0 3.041-.631 3.993-1.893.951-1.262 1.427-3.162 1.427-5.699Zm16.74 10.478c-2.829 0-5.13-.882-6.904-2.647-1.775-1.777-2.662-4.148-2.662-7.114v-.625c0-1.973.392-3.732 1.177-5.276.797-1.556 1.903-2.77 3.317-3.64a8.642 8.642 0 0 1 4.629-1.323c2.712 0 4.821.852 6.325 2.555 1.504 1.704 2.257 4.143 2.257 7.317v1.415H92.687c.052 1.96.65 3.548 1.794 4.761 1.157 1.2 2.623 1.801 4.397 1.801 1.26 0 2.327-.245 3.201-.735a7.91 7.91 0 0 0 2.295-1.948l2.18 1.617c-1.749 2.562-4.372 3.842-7.869 3.842Zm-.444-17.83c-1.44 0-2.648.502-3.625 1.507-.977.992-1.582 2.39-1.813 4.19h10.453v-.257c-.103-1.727-.592-3.063-1.466-4.007-.874-.956-2.057-1.434-3.549-1.434Zm16.605 17.463h-3.567v-19.89h3.567v19.89Zm-3.857-25.166c0-.551.174-1.017.521-1.397.36-.38.887-.57 1.581-.57.695 0 1.222.19 1.582.57.36.38.54.846.54 1.397 0 .552-.18 1.011-.54 1.379-.36.367-.887.551-1.582.551-.694 0-1.221-.183-1.581-.551-.347-.368-.521-.828-.521-1.379Zm19.671 8.327a11.182 11.182 0 0 0-1.754-.128c-2.34 0-3.928.95-4.764 2.849v14.118h-3.568v-19.89h3.472l.058 2.298c1.17-1.777 2.829-2.666 4.975-2.666.695 0 1.222.086 1.581.258v3.161Zm1.968 6.71c0-1.949.398-3.701 1.196-5.258.809-1.556 1.928-2.757 3.356-3.602 1.439-.846 3.078-1.269 4.917-1.269 2.841 0 5.136.938 6.885 2.813 1.761 1.875 2.643 4.368 2.643 7.481v.24c0 1.935-.393 3.676-1.177 5.22-.771 1.532-1.883 2.727-3.336 3.584-1.44.858-3.099 1.287-4.977 1.287-2.827 0-5.123-.937-6.884-2.812-1.749-1.875-2.623-4.357-2.623-7.445v-.24Zm3.587.404c0 2.206.534 3.977 1.6 5.313 1.08 1.336 2.521 2.003 4.32 2.003 1.814 0 3.254-.674 4.32-2.022 1.068-1.36 1.601-3.26 1.601-5.698 0-2.181-.547-3.946-1.639-5.294-1.08-1.36-2.52-2.04-4.32-2.04-1.761 0-3.182.667-4.262 2.003-1.08 1.336-1.62 3.247-1.62 5.735ZM82.555 42.817H79.17v8.948H77.79v-8.948h-3.377v-1.089h8.143v1.09Zm3.876 9.086c-1.06 0-1.923-.331-2.589-.993-.665-.666-.998-1.556-.998-2.668v-.234c0-.74.147-1.4.441-1.979a3.366 3.366 0 0 1 1.244-1.365 3.24 3.24 0 0 1 1.736-.496c1.017 0 1.808.32 2.372.958.564.64.846 1.554.846 2.744v.53h-5.3c.018.736.243 1.331.672 1.786.434.45.983.676 1.649.676.472 0 .872-.092 1.2-.276.328-.184.615-.427.86-.73l.818.606c-.656.96-1.64 1.44-2.95 1.44Zm-.166-6.687c-.54 0-.993.188-1.36.565-.366.373-.593.896-.68 1.572h3.92v-.096c-.038-.648-.221-1.15-.55-1.503-.327-.359-.77-.538-1.33-.538Zm7.912 5.646c.477 0 .894-.138 1.251-.414.357-.276.555-.62.593-1.034h1.266c-.024.427-.179.834-.463 1.22a3.009 3.009 0 0 1-1.143.924c-.472.23-.974.345-1.504.345-1.066 0-1.914-.338-2.546-1.014-.627-.68-.94-1.608-.94-2.785v-.213c0-.727.14-1.372.42-1.938.28-.565.68-1.004 1.2-1.316.526-.313 1.145-.469 1.859-.469.877 0 1.605.25 2.184.752.583.5.894 1.15.933 1.95H96.02a1.706 1.706 0 0 0-.578-1.185c-.343-.313-.767-.469-1.273-.469-.68 0-1.208.234-1.584.703-.371.464-.557 1.138-.557 2.02v.241c0 .86.186 1.521.557 1.985.371.465.901.697 1.591.697Zm5.88-6.556.043.938c.598-.717 1.379-1.076 2.343-1.076 1.654 0 2.488.89 2.503 2.668v4.929h-1.338v-4.936c-.005-.538-.135-.935-.391-1.193-.251-.257-.644-.386-1.179-.386-.434 0-.814.11-1.142.331-.328.22-.584.51-.767.869v5.315h-1.338v-7.459h1.266Zm6.552 3.66c0-.73.149-1.387.448-1.971a3.306 3.306 0 0 1 1.259-1.351c.54-.317 1.155-.476 1.844-.476 1.066 0 1.926.352 2.582 1.055.66.703.991 1.638.991 2.806v.09c0 .725-.147 1.378-.441 1.957a3.202 3.202 0 0 1-1.252 1.344c-.54.322-1.162.483-1.866.483-1.06 0-1.921-.352-2.581-1.055-.656-.703-.984-1.634-.984-2.792v-.09Zm1.345.152c0 .827.2 1.491.6 1.992.405.501.945.752 1.62.752.68 0 1.22-.253 1.62-.759.401-.51.601-1.222.601-2.136 0-.819-.205-1.48-.615-1.986-.405-.51-.945-.765-1.62-.765-.661 0-1.193.25-1.598.751s-.608 1.218-.608 2.151Zm8.91 3.647h-1.338V41.176h1.338v10.589Zm1.794-3.798c0-.731.149-1.388.448-1.972a3.3 3.3 0 0 1 1.259-1.351c.54-.317 1.154-.476 1.844-.476 1.065 0 1.926.352 2.582 1.055.661.703.99 1.638.99 2.806v.09c0 .725-.147 1.378-.44 1.957a3.202 3.202 0 0 1-1.252 1.344c-.539.322-1.162.483-1.866.483-1.06 0-1.921-.352-2.582-1.055-.655-.703-.983-1.634-.983-2.792v-.09Zm1.345.151c0 .827.2 1.491.6 1.992.405.501.945.752 1.62.752.68 0 1.22-.253 1.62-.759.4-.51.6-1.222.6-2.136 0-.819-.205-1.48-.614-1.986-.405-.51-.945-.765-1.62-.765-.661 0-1.194.25-1.599.751-.404.501-.607 1.218-.607 2.151Zm7.138-.145c0-1.162.282-2.086.846-2.77.564-.69 1.312-1.035 2.243-1.035.954 0 1.699.322 2.234.965l.065-.827h1.222v7.28c0 .965-.301 1.725-.904 2.281-.598.556-1.403.834-2.415.834a4.192 4.192 0 0 1-1.656-.344c-.54-.23-.952-.545-1.237-.945l.695-.765c.572.676 1.275 1.013 2.104 1.013.651 0 1.157-.174 1.518-.523.367-.35.55-.842.55-1.476v-.64c-.535.587-1.266.882-2.191.882-.916 0-1.659-.352-2.228-1.055-.564-.703-.846-1.661-.846-2.875Zm1.346.145c0 .841.18 1.503.542 1.985.361.478.867.717 1.519.717.843 0 1.463-.365 1.858-1.096V46.32c-.41-.712-1.025-1.069-1.844-1.069-.651 0-1.159.242-1.526.724-.367.483-.549 1.197-.549 2.144Zm8.743 3.647h-1.338v-7.459h1.338v7.459Zm-1.446-9.437c0-.207.064-.382.195-.524.134-.143.333-.214.592-.214.261 0 .459.071.594.214a.732.732 0 0 1 .202.524c0 .206-.067.379-.202.517s-.333.206-.594.206c-.259 0-.458-.068-.592-.206a.72.72 0 0 1-.195-.517Zm8.425 9.437c-.078-.147-.139-.41-.188-.786-.622.616-1.365.924-2.227.924-.772 0-1.406-.207-1.902-.62a1.99 1.99 0 0 1-.739-1.586c0-.777.309-1.379.926-1.806.622-.432 1.495-.648 2.618-.648h1.302v-.586c0-.446-.139-.8-.419-1.062-.279-.266-.692-.4-1.237-.4-.477 0-.878.115-1.2.345-.323.23-.485.508-.485.834h-1.345c0-.372.137-.73.412-1.075.28-.35.655-.625 1.128-.828a3.988 3.988 0 0 1 1.57-.303c.901 0 1.607.216 2.118.648.512.427.776 1.018.796 1.772v3.433c0 .684.092 1.229.275 1.633v.11h-1.403Zm-2.22-.972c.419 0 .817-.104 1.193-.31.377-.207.648-.476.817-.807v-1.53h-1.049c-1.639 0-2.459.457-2.459 1.371 0 .4.141.713.42.938.28.225.639.338 1.078.338Z" fill="#fff"/></svg>
